third_party/noto/noto_2/emoji_u1f6a4.svg

<svg enable-background="new 0 0 128 128" version="1.1" viewBox="0 0 128 128" xmlns="http://www.w3.org/2000/svg"><path d="m118 95.43-7.74-2.88-5.33-1.86 1.09-9.79c0.24-1.88 1.98-3.24 3.95-3.09l8.57 0.67c2.04 0.16 3.57 1.87 3.41 3.83l-0.6 7.7c-0.11 1.35-0.68 3.52-1.72 4.44l-1.63 0.98z" fill="#455A64"/><path d="m3.15 85.59s4.37 16.22 25.33 25.38c29.95 13.07 87.21 13.03 87.21 13.03s4.05-0.12 5-2.94c-0.02-0.61 4.17-18.5 4.17-18.5s-34.25-3.76-60.86-7.13-60.85-9.84-60.85-9.84z" fill="#F4511E"/><path d="m122.21 96.37-25.16-13.87s-37.57-1.55-61.3-1.99c-16.85-0.32-27.3 2.28-31.95 3.81-0.86 0.28-0.81 1.55 0.07 1.75 8.22 1.92 31.98 7.36 45.04 9.33 14.71 2.22 67.63 6.8 75.94 7.15l-2.64-6.18z" fill="#FFCA28"/><path d="m78.47 110.47c-0.06 0.2 7.17-5.77 7.17-5.77-49.02-1.64-73.01-12.22-73.01-12.22s8.42 8.96 45.18 13.48c3.96 0.49 15.46 1.79 15.46 1.79l-5.49 5.63c11.46 2.51 53.42 4.59 53.42 4.59l1.63-6.56c-30.5 0.84-44.36-0.94-44.36-0.94z" fill="#A12524"/><path d="m114.61 76.54c5.02 0.24 7.35 3.11 7.16 4.37-0.02 0.12-3.16 0.55-7.62 0.23-3.9-0.28-7.12-1.2-7.63-1.64 0 0 0.98-3.29 8.09-2.96z" fill="#82AEC0"/><path d="m74.7 91.29 27.78 2.17c0.91 0.07 1.31-1.12 0.54-1.61l-10.52-5.8c-0.85-0.47-1.79-0.74-2.75-0.78l-23.73-1.2 8.68 7.22z" fill="#EF6C00"/><polygon points="90.63 85.37 90.08 92.49 74.7 91.29 66.02 84.07" fill="#BF360C"/><path d="m47.14 81.09 9.23-5.88s12.44 4.78 18.65 12.85c1.23 1.6 3.53 5.1 1.7 4.66-4.49-1.09-13.8-3.77-18.37-5.84-8.38-3.81-11.21-5.79-11.21-5.79z" fill="#82AEC0"/><path d="m44.44 81.66c0.12-0.4 3.46-1.15 3.46-1.15s11.58 8.41 29.84 11.27v1.55s-13.67-1-22.43-5.06c-8.75-4.07-10.87-6.61-10.87-6.61z" fill="#FFCA28"/><path d="m45.07 81.92c1.13-0.46 2.14-0.2 2.51 0.1 0.67 0.56 3.51 2.53 5.69 3.53 2.8 1.28 3.47 3.93-2.95 2.09-2.33-0.67-4.2-1.78-5.58-2.83-1.25-0.95-1.14-2.29 0.33-2.89z" fill="#FCE8B2"/><path d="m51.06 82.39 10.01-5.03s3.39 1.75 4.47 2.54l-9.64 4.96c-3.43-1.56-4.84-2.47-4.84-2.47z" fill="#94D1E0"/></svg>

<?xml version="1.0" encoding="utf-8"?>
<!-- Generator: Adobe Illustrator 25.2.3, SVG Export Plug-In . SVG Version: 6.00 Build 0)  -->
<svg version="1.1" id="Layer_4" xmlns="http://www.w3.org/2000/svg" xmlns:xlink="http://www.w3.org/1999/xlink" x="0px" y="0px"
	 viewBox="0 0 128 128" style="enable-background:new 0 0 128 128;" xml:space="preserve">
<g>
	<path style="fill:#455A64;" d="M118,95.43l-7.74-2.88l-5.33-1.86l1.09-9.79c0.24-1.88,1.98-3.24,3.95-3.09l8.57,0.67
		c2.04,0.16,3.57,1.87,3.41,3.83l-0.6,7.7c-0.11,1.35-0.68,3.52-1.72,4.44L118,95.43z"/>
	<g>
		<g>
			<path style="fill:#F4511E;" d="M3.15,85.59c0,0,4.37,16.22,25.33,25.38C58.43,124.04,115.69,124,115.69,124s4.05-0.12,5-2.94
				c-0.02-0.61,4.17-18.5,4.17-18.5S90.61,98.8,64,95.43S3.15,85.59,3.15,85.59z"/>
			<path style="fill:#FFCA28;" d="M122.21,96.37L97.05,82.5c0,0-37.57-1.55-61.3-1.99C18.9,80.19,8.45,82.79,3.8,84.32
				c-0.86,0.28-0.81,1.55,0.07,1.75c8.22,1.92,31.98,7.36,45.04,9.33c14.71,2.22,67.63,6.8,75.94,7.15L122.21,96.37z"/>
			<path style="fill:#A12524;" d="M78.47,110.47c-0.06,0.2,7.17-5.77,7.17-5.77c-49.02-1.64-73.01-12.22-73.01-12.22
				s8.42,8.96,45.18,13.48c3.96,0.49,15.46,1.79,15.46,1.79l-5.49,5.63c11.46,2.51,53.42,4.59,53.42,4.59l1.63-6.56
				C92.33,112.25,78.47,110.47,78.47,110.47z"/>
		</g>
	</g>
	<path style="fill:#82AEC0;" d="M114.61,76.54c5.02,0.24,7.35,3.11,7.16,4.37c-0.02,0.12-3.16,0.55-7.62,0.23
		c-3.9-0.28-7.12-1.2-7.63-1.64C106.52,79.5,107.5,76.21,114.61,76.54z"/>
	<path style="fill:#EF6C00;" d="M74.7,91.29l27.78,2.17c0.91,0.07,1.31-1.12,0.54-1.61L92.5,86.05c-0.85-0.47-1.79-0.74-2.75-0.78
		l-23.73-1.2L74.7,91.29z"/>
	<polygon style="fill:#BF360C;" points="90.63,85.37 90.08,92.49 74.7,91.29 66.02,84.07 	"/>
	<path style="fill:#82AEC0;" d="M47.14,81.09l9.23-5.88c0,0,12.44,4.78,18.65,12.85c1.23,1.6,3.53,5.1,1.7,4.66
		c-4.49-1.09-13.8-3.77-18.37-5.84C49.97,83.07,47.14,81.09,47.14,81.09z"/>
	<path style="fill:#FFCA28;" d="M44.44,81.66c0.12-0.4,3.46-1.15,3.46-1.15s11.58,8.41,29.84,11.27v1.55c0,0-13.67-1-22.43-5.06
		C46.56,84.2,44.44,81.66,44.44,81.66z"/>
	<path style="fill:#FCE8B2;" d="M45.07,81.92c1.13-0.46,2.14-0.2,2.51,0.1c0.67,0.56,3.51,2.53,5.69,3.53
		c2.8,1.28,3.47,3.93-2.95,2.09c-2.33-0.67-4.2-1.78-5.58-2.83C43.49,83.86,43.6,82.52,45.07,81.92z"/>
	<path style="fill:#94D1E0;" d="M51.06,82.39l10.01-5.03c0,0,3.39,1.75,4.47,2.54l-9.64,4.96C52.47,83.3,51.06,82.39,51.06,82.39z"
		/>
</g>
</svg>
